X:28
T:Valse d'Ernest Lurde
R:Valse
O:France
M:3/4
L:1/4
Q:1/4=170
K:C
ecd|e2e|gcd|e2e|gfe|d2d/2e/2|fed|1e2c:|2c3|
|:eee|ede|fed|c2B/2c/2|dBc|d2d/2e/2|fed|1e2c:|2c3||
%%footer $D   Galouvielle-MBe 2005 \nValse France
